github.svg

<svg width="128" height="128" viewBox="0 0 128 128" fill="none" xmlns="http://www.w3.org/2000/svg">
<path fill-rule="evenodd" clip-rule="evenodd" d="M64.0001 1.51172C40.5071 1.51172 21.4551 20.5587 21.4551 44.0567C21.4551 62.8537 33.6451 78.8017 50.5501 84.4267C52.6761 84.8207 53.4571 83.5037 53.4571 82.3797C53.4571 81.3657 53.4171 78.0137 53.3991 74.4597C41.5621 77.0327 39.0651 69.4397 39.0651 69.4397C37.1301 64.5217 34.3411 63.2137 34.3411 63.2137C30.4811 60.5737 34.6311 60.6277 34.6311 60.6277C38.9041 60.9277 41.1541 65.0127 41.1541 65.0127C44.9481 71.5167 51.1071 69.6357 53.5341 68.5487C53.9171 65.7987 55.0191 63.9207 56.2361 62.8587C46.7861 61.7837 36.8521 58.1347 36.8521 41.8327C36.8521 37.1877 38.5141 33.3927 41.2361 30.4127C40.7941 29.3407 39.3381 25.0127 41.6481 19.1527C41.6481 19.1527 45.2201 18.0107 53.3481 23.5157C56.7431 22.5727 60.3831 22.0997 63.9981 22.0837C67.6141 22.1007 71.2561 22.5737 74.6561 23.5157C82.7761 18.0117 86.3441 19.1537 86.3441 19.1537C88.6601 25.0137 87.2041 29.3407 86.7621 30.4137C89.4901 33.3917 91.1401 37.1877 91.1401 41.8337C91.1401 58.1737 81.1871 61.7717 71.7131 62.8237C73.2391 64.1437 74.5991 66.7337 74.5991 70.7037C74.5991 76.3957 74.5511 80.9767 74.5511 82.3777C74.5511 83.5077 75.3171 84.8357 77.4731 84.4177C94.3691 78.7857 106.543 62.8437 106.543 44.0527C106.545 20.5597 87.4971 1.51172 64.0001 1.51172Z" fill="white"/>
<path d="M37.5702 62.5959C37.4752 62.8079 37.1422 62.8709 36.8402 62.7259C36.5302 62.5859 36.3582 62.2989 36.4582 62.0859C36.5482 61.8699 36.8822 61.8089 37.1912 61.9539C37.5012 62.0939 37.6762 62.3839 37.5702 62.5959ZM39.2932 64.5199C39.0902 64.7069 38.6932 64.6199 38.4232 64.3219C38.1452 64.0249 38.0932 63.6279 38.2992 63.4379C38.5072 63.2499 38.8922 63.3379 39.1692 63.6349C39.4492 63.9349 39.5042 64.3279 39.2922 64.5189L39.2932 64.5199ZM40.9702 66.9679C40.7102 67.1499 40.2832 66.9799 40.0202 66.6009C39.7582 66.2239 39.7582 65.7709 40.0252 65.5879C40.2892 65.4059 40.7092 65.5699 40.9752 65.9449C41.2372 66.3299 41.2372 66.7839 40.9702 66.9679ZM43.2682 69.3359C43.0352 69.5929 42.5382 69.5239 42.1752 69.1729C41.8032 68.8299 41.7002 68.3429 41.9332 68.0859C42.1702 67.8289 42.6692 67.9009 43.0352 68.2489C43.4052 68.5909 43.5172 69.0799 43.2682 69.3359ZM46.4402 70.7099C46.3362 71.0439 45.8582 71.1949 45.3762 71.0539C44.8942 70.9079 44.5802 70.5179 44.6762 70.1819C44.7762 69.8459 45.2582 69.6889 45.7432 69.8399C46.2232 69.9839 46.5392 70.3699 46.4402 70.7099ZM49.9202 70.9649C49.9332 71.3149 49.5242 71.6069 49.0182 71.6129C48.5102 71.6249 48.0982 71.3409 48.0922 70.9949C48.0922 70.6409 48.4922 70.3529 49.0002 70.3449C49.5062 70.3349 49.9202 70.6169 49.9202 70.9649ZM53.1602 70.4139C53.2202 70.7559 52.8702 71.1079 52.3672 71.2009C51.8732 71.2929 51.4172 71.0809 51.3532 70.7409C51.2932 70.3909 51.6502 70.0409 52.1432 69.9489C52.6462 69.8609 53.0962 70.0659 53.1602 70.4139Z" fill="white"/>
<path d="M24.8551 108.303H14.1551C14.0225 108.303 13.8953 108.355 13.8016 108.449C13.7078 108.543 13.6551 108.67 13.6551 108.803V114.035C13.6551 114.167 13.7078 114.294 13.8016 114.388C13.8953 114.482 14.0225 114.535 14.1551 114.535H18.3281V121.035C18.3281 121.035 17.3911 121.354 14.7981 121.354C11.7421 121.354 7.47113 120.239 7.47113 110.847C7.47113 101.454 11.9191 100.217 16.0951 100.217C19.7091 100.217 21.2651 100.853 22.2571 101.16C22.5671 101.254 22.8571 100.944 22.8571 100.668L24.0501 95.6125C24.0521 95.5368 24.0356 95.4618 24.0022 95.3939C23.9687 95.3259 23.9193 95.2671 23.8581 95.2225C23.4551 94.9345 21.0011 93.5625 14.8001 93.5625C7.65613 93.5625 0.328125 96.6005 0.328125 111.213C0.328125 125.823 8.71812 128 15.7881 128C21.6421 128 25.1931 125.498 25.1931 125.498C25.3391 125.418 25.3551 125.213 25.3551 125.118V108.802C25.3551 108.669 25.3024 108.542 25.2087 108.448C25.1149 108.354 24.9877 108.303 24.8551 108.303ZM79.5061 94.8105H73.4801C73.4144 94.8108 73.3493 94.824 73.2887 94.8494C73.2281 94.8749 73.1731 94.912 73.1268 94.9587C73.0805 95.0054 73.044 95.0608 73.0191 95.1217C72.9943 95.1826 72.9817 95.2478 72.9821 95.3135L72.9841 106.958H63.5921V95.3135C63.5925 95.2478 63.58 95.1827 63.5552 95.1219C63.5305 95.0611 63.494 95.0058 63.4478 94.9591C63.4017 94.9124 63.3468 94.8752 63.2862 94.8497C63.2257 94.8242 63.1608 94.8109 63.0951 94.8105H57.0701C57.0044 94.8108 56.9393 94.824 56.8787 94.8494C56.8181 94.8749 56.7631 94.912 56.7168 94.9587C56.6705 95.0054 56.634 95.0608 56.6091 95.1217C56.5843 95.1826 56.5717 95.2478 56.5721 95.3135V126.844C56.5721 127.121 56.7961 127.347 57.0701 127.347H63.0951C63.1609 127.346 63.2259 127.333 63.2865 127.307C63.3471 127.282 63.402 127.244 63.4482 127.198C63.4943 127.151 63.5308 127.095 63.5555 127.034C63.5802 126.973 63.5927 126.908 63.5921 126.843V113.357H72.9841L72.9681 126.843C72.9681 127.121 73.1921 127.347 73.4681 127.347H79.5061C79.5719 127.346 79.6369 127.333 79.6975 127.307C79.758 127.282 79.813 127.244 79.8592 127.198C79.9053 127.151 79.9418 127.095 79.9665 127.034C79.9912 126.973 80.0036 126.908 80.0031 126.843V95.3125C80.0038 95.2468 79.9914 95.1817 79.9667 95.1208C79.9421 95.0599 79.9056 95.0045 79.8593 94.9578C79.8131 94.9112 79.7581 94.8741 79.6975 94.8488C79.6369 94.8235 79.5718 94.8105 79.5061 94.8105ZM32.3401 95.5275C30.1961 95.5275 28.4561 97.2805 28.4561 99.4505C28.4561 101.618 30.1961 103.376 32.3401 103.376C34.4861 103.376 36.2251 101.618 36.2251 99.4505C36.2251 97.2805 34.4851 95.5275 32.3401 95.5275ZM35.2961 105.136H29.2901C29.0141 105.136 28.7681 105.42 28.7681 105.696V126.548C28.7681 127.161 29.1501 127.343 29.6441 127.343H35.0541C35.6491 127.343 35.7941 127.051 35.7941 126.538V105.639C35.7944 105.573 35.7817 105.508 35.7568 105.447C35.7319 105.386 35.6953 105.331 35.6491 105.284C35.6028 105.238 35.5479 105.201 35.4873 105.175C35.4268 105.15 35.3618 105.136 35.2961 105.136ZM102.902 105.183H96.9221C96.8565 105.183 96.7915 105.196 96.7311 105.222C96.6706 105.248 96.6158 105.285 96.5697 105.332C96.5237 105.379 96.4873 105.434 96.4626 105.495C96.438 105.556 96.4256 105.621 96.4261 105.687V121.147C96.4261 121.147 94.9061 122.257 92.7511 122.257C90.5961 122.257 90.0241 121.28 90.0241 119.169V105.687C90.0247 105.621 90.0122 105.556 89.9875 105.495C89.9628 105.434 89.9263 105.378 89.8802 105.331C89.834 105.285 89.779 105.247 89.7185 105.222C89.6579 105.196 89.5929 105.183 89.5271 105.183H83.4591C83.3263 105.184 83.1994 105.237 83.106 105.332C83.0127 105.426 82.9606 105.554 82.9611 105.687V120.189C82.9611 126.459 86.4561 127.993 91.2631 127.993C95.2071 127.993 98.3871 125.812 98.3871 125.812C98.3871 125.812 98.5371 126.963 98.6071 127.098C98.6771 127.234 98.8541 127.371 99.0471 127.371L102.907 127.354C102.973 127.353 103.038 127.34 103.099 127.315C103.16 127.289 103.215 127.252 103.262 127.205C103.308 127.158 103.345 127.103 103.37 127.042C103.395 126.981 103.407 126.915 103.407 126.85L103.404 105.684C103.404 105.551 103.351 105.424 103.257 105.33C103.164 105.236 103.037 105.183 102.904 105.182L102.902 105.183ZM119.244 104.475C115.848 104.475 113.538 105.99 113.538 105.99V95.3125C113.539 95.2468 113.526 95.1817 113.501 95.1209C113.476 95.0601 113.44 95.0048 113.394 94.9581C113.348 94.9114 113.293 94.8742 113.232 94.8487C113.172 94.8232 113.107 94.8099 113.041 94.8095H107C106.934 94.8095 106.869 94.8225 106.808 94.8478C106.747 94.8732 106.692 94.9103 106.646 94.957C106.599 95.0038 106.562 95.0592 106.537 95.1202C106.512 95.1812 106.5 95.2466 106.5 95.3125V126.843C106.5 126.908 106.512 126.974 106.537 127.035C106.562 127.096 106.599 127.151 106.646 127.198C106.692 127.245 106.747 127.282 106.808 127.307C106.869 127.332 106.934 127.346 107 127.346H111.192C111.382 127.346 111.524 127.249 111.629 127.078C111.732 126.908 111.883 125.624 111.883 125.624C111.883 125.624 114.353 127.964 119.031 127.964C124.521 127.964 127.671 125.18 127.671 115.462C127.671 105.744 122.641 104.474 119.243 104.474L119.244 104.475ZM116.884 122.239C114.811 122.176 113.404 121.235 113.404 121.235V111.25C113.404 111.25 114.792 110.4 116.494 110.246C118.647 110.053 120.722 110.704 120.722 115.84C120.722 121.257 119.787 122.326 116.885 122.238L116.884 122.239ZM53.1951 122.121C52.9321 122.121 52.2581 122.228 51.5651 122.228C49.3451 122.228 48.5921 121.196 48.5921 119.86V110.993H53.1121C53.1781 110.994 53.2435 110.98 53.3044 110.955C53.3653 110.93 53.4206 110.892 53.4671 110.846C53.5136 110.799 53.5503 110.743 53.5752 110.682C53.6001 110.621 53.6127 110.555 53.6121 110.49V105.634C53.6124 105.568 53.5997 105.502 53.5746 105.442C53.5496 105.381 53.5128 105.325 53.4664 105.279C53.4199 105.232 53.3647 105.195 53.3039 105.17C53.2431 105.145 53.178 105.131 53.1121 105.132H48.5921L48.5851 99.1615C48.5851 98.9345 48.4691 98.8215 48.2071 98.8215H42.0471C41.8091 98.8215 41.6801 98.9275 41.6801 99.1565V105.326C41.6801 105.326 38.5931 106.072 38.3851 106.132C38.2813 106.162 38.19 106.225 38.1251 106.312C38.0602 106.398 38.0251 106.503 38.0251 106.612V110.489C38.0247 110.554 38.0373 110.619 38.062 110.68C38.0868 110.741 38.1233 110.796 38.1694 110.843C38.2156 110.89 38.2705 110.927 38.331 110.952C38.3915 110.978 38.4565 110.991 38.5221 110.992H41.6801V120.32C41.6801 127.25 46.5401 127.93 49.8201 127.93C51.3171 127.93 53.1101 127.45 53.4061 127.34C53.5861 127.273 53.6891 127.088 53.6891 126.887L53.6931 122.622C53.6911 122.489 53.6378 122.363 53.5445 122.27C53.4513 122.176 53.3253 122.122 53.1931 122.12L53.1951 122.121Z" fill="white"/>
</svg>

<svg xmlns="http://www.w3.org/2000/svg" viewBox="0 0 128 128"><g fill="#181616"><path fill-rule="evenodd" clip-rule="evenodd" d="M64 1.512c-23.493 0-42.545 19.047-42.545 42.545 0 18.797 12.19 34.745 29.095 40.37 2.126.394 2.907-.923 2.907-2.047 0-1.014-.04-4.366-.058-7.92-11.837 2.573-14.334-5.02-14.334-5.02-1.935-4.918-4.724-6.226-4.724-6.226-3.86-2.64.29-2.586.29-2.586 4.273.3 6.523 4.385 6.523 4.385 3.794 6.504 9.953 4.623 12.38 3.536.383-2.75 1.485-4.628 2.702-5.69-9.45-1.075-19.384-4.724-19.384-21.026 0-4.645 1.662-8.44 4.384-11.42-.442-1.072-1.898-5.4.412-11.26 0 0 3.572-1.142 11.7 4.363 3.395-.943 7.035-1.416 10.65-1.432 3.616.017 7.258.49 10.658 1.432 8.12-5.504 11.688-4.362 11.688-4.362 2.316 5.86.86 10.187.418 11.26 2.728 2.978 4.378 6.774 4.378 11.42 0 16.34-9.953 19.938-19.427 20.99 1.526 1.32 2.886 3.91 2.886 7.88 0 5.692-.048 10.273-.048 11.674 0 1.13.766 2.458 2.922 2.04 16.896-5.632 29.07-21.574 29.07-40.365C106.545 20.56 87.497 1.512 64 1.512z"/><path d="M37.57 62.596c-.095.212-.428.275-.73.13-.31-.14-.482-.427-.382-.64.09-.216.424-.277.733-.132.31.14.486.43.38.642zM39.293 64.52c-.203.187-.6.1-.87-.198-.278-.297-.33-.694-.124-.884.208-.188.593-.1.87.197.28.3.335.693.123.884zm1.677 2.448c-.26.182-.687.012-.95-.367-.262-.377-.262-.83.005-1.013.264-.182.684-.018.95.357.262.385.262.84-.005 1.024zm2.298 2.368c-.233.257-.73.188-1.093-.163-.372-.343-.475-.83-.242-1.087.237-.257.736-.185 1.102.163.37.342.482.83.233 1.086zm3.172 1.374c-.104.334-.582.485-1.064.344-.482-.146-.796-.536-.7-.872.1-.336.582-.493 1.067-.342.48.144.795.53.696.87zm3.48.255c.013.35-.396.642-.902.648-.508.012-.92-.272-.926-.618 0-.354.4-.642.908-.65.506-.01.92.272.92.62zm3.24-.551c.06.342-.29.694-.793.787-.494.092-.95-.12-1.014-.46-.06-.35.297-.7.79-.792.503-.088.953.118 1.017.466zm0 0"/></g><path d="M24.855 108.302h-10.7a.5.5 0 00-.5.5v5.232a.5.5 0 00.5.5h4.173v6.5s-.937.32-3.53.32c-3.056 0-7.327-1.116-7.327-10.508 0-9.393 4.448-10.63 8.624-10.63 3.614 0 5.17.636 6.162.943.31.094.6-.216.6-.492l1.193-5.055a.468.468 0 00-.192-.39c-.403-.288-2.857-1.66-9.058-1.66-7.144 0-14.472 3.038-14.472 17.65 0 14.61 8.39 16.787 15.46 16.787 5.854 0 9.405-2.502 9.405-2.502.146-.08.162-.285.162-.38v-16.316a.5.5 0 00-.5-.5zM79.506 94.81H73.48a.5.5 0 00-.498.503l.002 11.644h-9.392V95.313a.5.5 0 00-.497-.503H57.07a.5.5 0 00-.498.503v31.53c0 .277.224.503.498.503h6.025a.5.5 0 00.497-.504v-13.486h9.392l-.016 13.486c0 .278.224.504.5.504h6.038a.5.5 0 00.497-.504v-31.53a.497.497 0 00-.497-.502zm-47.166.717c-2.144 0-3.884 1.753-3.884 3.923 0 2.167 1.74 3.925 3.884 3.925 2.146 0 3.885-1.758 3.885-3.925 0-2.17-1.74-3.923-3.885-3.923zm2.956 9.608H29.29c-.276 0-.522.284-.522.56v20.852c0 .613.382.795.876.795h5.41c.595 0 .74-.292.74-.805v-20.899a.5.5 0 00-.498-.502zm67.606.047h-5.98a.5.5 0 00-.496.504v15.46s-1.52 1.11-3.675 1.11-2.727-.977-2.727-3.088v-13.482a.5.5 0 00-.497-.504h-6.068a.502.502 0 00-.498.504v14.502c0 6.27 3.495 7.804 8.302 7.804 3.944 0 7.124-2.18 7.124-2.18s.15 1.15.22 1.285c.07.136.247.273.44.273l3.86-.017a.502.502 0 00.5-.504l-.003-21.166a.504.504 0 00-.5-.502zm16.342-.708c-3.396 0-5.706 1.515-5.706 1.515V95.312a.5.5 0 00-.497-.503H107a.5.5 0 00-.5.503v31.53a.5.5 0 00.5.503h4.192c.19 0 .332-.097.437-.268.103-.17.254-1.454.254-1.454s2.47 2.34 7.148 2.34c5.49 0 8.64-2.784 8.64-12.502s-5.03-10.988-8.428-10.988zm-2.36 17.764c-2.073-.063-3.48-1.004-3.48-1.004v-9.985s1.388-.85 3.09-1.004c2.153-.193 4.228.458 4.228 5.594 0 5.417-.935 6.486-3.837 6.398zm-63.689-.118c-.263 0-.937.107-1.63.107-2.22 0-2.973-1.032-2.973-2.368v-8.866h4.52a.5.5 0 00.5-.504v-4.856a.5.5 0 00-.5-.502h-4.52l-.007-5.97c0-.227-.116-.34-.378-.34h-6.16c-.238 0-.367.106-.367.335v6.17s-3.087.745-3.295.805a.5.5 0 00-.36.48v3.877a.5.5 0 00.497.503h3.158v9.328c0 6.93 4.86 7.61 8.14 7.61 1.497 0 3.29-.48 3.586-.59.18-.067.283-.252.283-.453l.004-4.265a.51.51 0 00-.5-.502z" fill="#100E0F"/></svg>
